svgs/inware.svg

<svg width="192" height="192" viewBox="0 0 192 192" fill="none" xmlns="http://www.w3.org/2000/svg"><path fill-rule="evenodd" clip-rule="evenodd" d="M71 18a6 6 0 0 1 12 0v19h26V18a6 6 0 1 1 12 0v19h6c15.464 0 28 12.536 28 28v6h19a6 6 0 1 1 0 12h-19v26h19a6 6 0 1 1 0 12h-19v6c0 15.464-12.536 28-28 28h-6v19a6 6 0 1 1-12 0v-19H83v19a6 6 0 1 1-12 0v-19h-6c-15.464 0-28-12.536-28-28v-6H18a6 6 0 1 1 0-12h19V83H18a6 6 0 0 1 0-12h19v-6c0-15.464 12.536-28 28-28h6V18Zm-6 31h62c8.837 0 16 7.163 16 16v62c0 8.837-7.163 16-16 16H65c-8.837 0-16-7.163-16-16V65c0-8.837 7.163-16 16-16Zm45 47c0 7.732-6.268 14-14 14s-14-6.268-14-14 6.268-14 14-14 14 6.268 14 14Zm12 0c0 14.359-11.641 26-26 26-14.36 0-26-11.641-26-26 0-14.36 11.64-26 26-26 14.359 0 26 11.64 26 26Z" fill="#000"/></svg>

<?xml version="1.0" encoding="UTF-8" standalone="no"?><svg xmlns:android="http://schemas.android.com/apk/res/android" height="192" width="192" xmlns="http://www.w3.org/2000/svg">
  <path d="M71,18C71,14.686 73.686,12 77,12C80.314,12 83,14.686 83,18V37H109V18C109,14.686 111.686,12 115,12C118.314,12 121,14.686 121,18V37H127C142.464,37 155,49.536 155,65V71H174C177.314,71 180,73.686 180,77C180,80.314 177.314,83 174,83H155V109H174C177.314,109 180,111.686 180,115C180,118.314 177.314,121 174,121H155V127C155,142.464 142.464,155 127,155H121V174C121,177.314 118.314,180 115,180C111.686,180 109,177.314 109,174V155H83V174C83,177.314 80.314,180 77,180C73.686,180 71,177.314 71,174V155H65C49.536,155 37,142.464 37,127V121H18C14.686,121 12,118.314 12,115C12,111.686 14.686,109 18,109H37V83H18C14.686,83 12,80.314 12,77C12,73.686 14.686,71 18,71H37V65C37,49.536 49.536,37 65,37H71V18ZM65,49H127C135.837,49 143,56.163 143,65V127C143,135.837 135.837,143 127,143H65C56.163,143 49,135.837 49,127V65C49,56.163 56.163,49 65,49ZM110,96C110,103.732 103.732,110 96,110C88.268,110 82,103.732 82,96C82,88.268 88.268,82 96,82C103.732,82 110,88.268 110,96ZM122,96C122,110.359 110.359,122 96,122C81.641,122 70,110.359 70,96C70,81.641 81.641,70 96,70C110.359,70 122,81.641 122,96Z" fill="#000000" fill-rule="evenOdd"/>
</svg>
